X: 13141
T: And the Kirk would let me be
%R: air, waltz, minuet + slip-jig
B: James Oswald "The Caledonian Pocket Companion" v.1 b.3 p.14
S: https://ia800501.us.archive.org/18/items/caledonianpocket01rugg/caledonianpocket01rugg_bw.pdf
N: The 1st 2 strains have no repeat; the 3rd has only a final repeat; the rest have all repeats.
N: This doesn't make much sense, so it's transcribed as-is. Repeat strains as you like.
Z: 2020 John Chambers <jc:trillian.mit.edu>
M: 3/4
L: 1/8
K: G
%%slurgraces 1
%%graceslurs 1
[| "_Slow"\
G4 G2 | Bc d2 {ef}g2 | (ed)(cB)(AG) | TA4 G2 |\
AB g2 f2 | Te4 (e/f/g) | (G2 A2) B2 | g2 (ag)(fe) |\
Td3 c B2 | TA2 G2 A2 |
B2 (cB)(AG) | TE4 D2 |]|\
g2 d2 e2 | g3 a (g/a/b) | a2 (ag)(fe) | e2 B2 d2 |\
(gf)(ga)(bc') | Ta4 gf | g2 a2 b2 | e2 (c'b)(ag) |
Tf3 e d2 | e2 B2 d2 | ef g2 (Bc) | TA4 G2 |[|\
(GB) d4 | (Bd) g2 b2 | (ag)(fe)(dc) | (B2 A2) G2 |\
(A2 B2) d2 | e4 (e/f/g) |
(GB)(dg) b2 | (c'b)(ag)(fe) |\
d2 (cB)(AG) | Ta2 g2 a2 | b2 (c'b)(ag) | Te4 d2 ::\
g2 (3(bag) G2 | (3(bag) G2 (3(bag) | Tf3 e d2 |
e2 B2 d2 |\
(GB)(dg)(bg) | {b}a2 (gf)(ed) | (3(gab) b4 | (3(bag) g4 |\
(eg)(fa)(gb) | d2 (Bd)(gb) | e>f g2 B>c | TA4 G2 :|
P: Giga
[M:9/8] |:\
"_Brisk"G2G (B/c/de) dBG | TA2G ABd e2g | GBd gfe dBG | ABd BAG E2D :: gdg (g/a/b)g afd | ede gab Ta2(g/f/) |
gab abg Tf>ed | efg dBG TA2G :: GBd GBd GBd | Ace Ace (g/f/e/f/)g | GBd Bdg (d/c/B/A/)G |
ABG dBG TE2D :: (g/f/g/a/)g dgb afd | GBd Bgb (a/g/f/e/)d | gGb fFa eEg | dBG (e/f/g)B TA2G :|


